storage/app/public/content/3-5.svg

<svg width="70" height="70" viewBox="0 0 70 70" fill="none" xmlns="http://www.w3.org/2000/svg">
<rect width="70" height="70" rx="13" fill="#1E222B"/>
<path d="M20.0775 46.3837C19.0544 46.3837 18.0881 46.1847 17.1786 45.7868C16.2691 45.3889 15.4781 44.8253 14.8054 44.0958C14.1423 43.3663 13.6639 42.5042 13.3702 41.5095L16.6812 40.6142C16.9181 41.4289 17.3491 42.0589 17.9744 42.5042C18.6091 42.94 19.3054 43.1532 20.0633 43.1437C20.736 43.1437 21.3375 42.9874 21.8681 42.6747C22.3986 42.3621 22.8154 41.9405 23.1186 41.41C23.4217 40.87 23.5733 40.2684 23.5733 39.6053C23.5733 38.5916 23.2465 37.7437 22.5928 37.0616C21.9391 36.3795 21.096 36.0384 20.0633 36.0384C19.7507 36.0384 19.4428 36.0811 19.1396 36.1663C18.846 36.2516 18.5617 36.37 18.287 36.5216L16.7239 33.8216L23.6017 27.9384L23.9002 28.7626H14.166V25.5368H26.7139V28.7768L21.186 34.0916L21.1575 33.0826C22.3986 33.1679 23.4549 33.5137 24.3265 34.12C25.2075 34.7263 25.8802 35.5079 26.3444 36.4647C26.8181 37.4216 27.0549 38.4684 27.0549 39.6053C27.0549 40.8937 26.7375 42.0495 26.1028 43.0726C25.4775 44.0958 24.6344 44.9058 23.5733 45.5026C22.5217 46.09 21.3565 46.3837 20.0775 46.3837ZM30.1686 37.1042V34.4184H38.6949V37.1042H30.1686ZM48.1711 46.4263C47.129 46.4263 46.1579 46.2132 45.2579 45.7868C44.3579 45.3511 43.5811 44.7542 42.9274 43.9963C42.2832 43.2384 41.819 42.3574 41.5348 41.3532L44.8316 40.4721C44.9642 41.0216 45.2058 41.4953 45.5563 41.8932C45.9163 42.2911 46.3332 42.5989 46.8069 42.8168C47.29 43.0347 47.7874 43.1437 48.299 43.1437C48.9621 43.1437 49.5685 42.9826 50.1179 42.6605C50.6674 42.3384 51.1032 41.9074 51.4253 41.3674C51.7474 40.8179 51.9085 40.2116 51.9085 39.5484C51.9085 38.8853 51.7427 38.2837 51.4111 37.7437C51.089 37.1942 50.6532 36.7632 50.1037 36.4505C49.5542 36.1284 48.9527 35.9674 48.299 35.9674C47.5127 35.9674 46.859 36.1095 46.3379 36.3937C45.8263 36.6779 45.4332 36.9811 45.1585 37.3032L42.2311 36.3653L42.8563 25.5368H53.969V28.7484H44.6895L45.9685 27.5405L45.5137 35.0721L44.8885 34.3047C45.419 33.8216 46.0348 33.4616 46.7358 33.2247C47.4369 32.9879 48.1142 32.8695 48.7679 32.8695C50.0469 32.8695 51.179 33.1632 52.1642 33.7505C53.159 34.3284 53.9358 35.1195 54.4948 36.1237C55.0632 37.1279 55.3474 38.2695 55.3474 39.5484C55.3474 40.8274 55.0158 41.9879 54.3527 43.03C53.6895 44.0626 52.8132 44.8868 51.7237 45.5026C50.6437 46.1184 49.4595 46.4263 48.1711 46.4263Z" fill="url(#paint0_linear_41_793)"/>
<defs>
<linearGradient id="paint0_linear_41_793" x1="4.25345" y1="51.6577" x2="40.7498" y2="12.9008" gradientUnits="userSpaceOnUse">
<stop stop-color="#9080FF"/>
<stop offset="1" stop-color="#B30ED9"/>
</linearGradient>
</defs>
</svg>

<svg version="1.2" xmlns="http://www.w3.org/2000/svg" viewBox="0 0 70 70" width="70" height="70">
	<title>3-5-svg</title>
	<defs>
		<image  width="70" height="70" id="img1" href="data:image/png;base64,iVBORw0KGgoAAAANSUhEUgAAAEYAAABGAQMAAABL4HDHAAAAAXNSR0IB2cksfwAAAANQTFRFyNLZdMc3zwAAAA9JREFUeJxjYBgFo2BoAgACvAABuGEXAAAAAABJRU5ErkJggg=="/>
		<linearGradient id="g1" x2="1" gradientUnits="userSpaceOnUse" gradientTransform="matrix(36.496,-38.757,39.715,37.399,4.253,51.658)">
			<stop offset="0" stop-color="#9080ff"/>
			<stop offset="1" stop-color="#b30ed9"/>
		</linearGradient>
	</defs>
	<style>
		.s0 { fill: url(#g1) } 
	</style>
	<use id="Layer" href="#img1" x="0" y="0"/>
	<path id="Layer" class="s0" d="m20.1 46.4q-1.6 0-2.9-0.6-1.4-0.6-2.4-1.7-1-1.1-1.4-2.6l3.3-0.9q0.3 1.2 1.3 1.9 0.9 0.7 2.1 0.6 1 0 1.8-0.4 0.8-0.5 1.2-1.3 0.5-0.8 0.5-1.8 0-1.5-1-2.5-1-1.1-2.5-1.1-0.5 0-1 0.2-0.4 0.1-0.8 0.3l-1.6-2.7 6.9-5.9 0.3 0.9h-9.7v-3.3h12.5v3.3l-5.5 5.3v-1q1.8 0.1 3.1 1 1.3 0.9 2 2.4 0.8 1.4 0.8 3.1 0 1.9-1 3.5-0.9 1.5-2.5 2.4-1.6 0.9-3.5 0.9zm10.1-9.3v-2.7h8.5v2.7zm18 9.3q-1.6 0-2.9-0.6-1.4-0.7-2.3-1.8-1-1.1-1.4-2.6l3.3-0.9q0.2 0.8 0.7 1.4 0.5 0.6 1.2 0.9 0.8 0.3 1.5 0.3 1 0 1.8-0.4 0.9-0.5 1.4-1.3 0.4-0.9 0.4-1.9 0-0.9-0.5-1.8-0.4-0.8-1.3-1.2-0.8-0.5-1.8-0.5-1.2 0-1.9 0.4-0.8 0.4-1.2 0.9l-2.9-0.9 0.6-10.9h11.1v3.2h-9.3l1.3-1.2-0.5 7.6-0.6-0.8q0.8-0.7 1.9-1.1 1-0.3 2-0.3 1.9 0 3.4 0.9 1.5 0.8 2.3 2.3 0.9 1.5 0.9 3.4 0 2-1 3.5-1 1.6-2.7 2.5-1.6 0.9-3.5 0.9z"/>
</svg>
